!!!OTL: Der Mann.
!!!OTL-incipit: WILLE WILLE WILL DER MANN IST KOMMEN
!!!ARE: Europa, Mitteleuropa, Deutschland, Westfalen
!!!SCT: Z1361
!!!YEM: Copyright 1995, estate of Helmut Schaffrath.
**kern	**text
*ICvox	*
*M2/4	*
*k[f#c#]	*
*D:	*
=1	=1
!LO:TX:a:t=Aus Weſtphalen.	!
{16f#	Wille
16e	.
16f#	wille
16g	.
16a	will,
16r	.
16f#	der
16r	.
=2	=2
16g	Mann
16r	.
16b/	iſt
16r	.
16a	kom-
16r	.
16d	-men,
16r}	.
=3	=3
{16f#	wil-
16e	-le
16f#	wil-
16g	-le
16a	will,
16r	.
16f#	was
16r	.
=4	=4
16g	bracht'
16r	.
16e	er
16r	.
8d	dann?
8r}	.
=5	=5
{16dd	wille
16cc#	.
16dd	wille
16dd	.
16dd	will,
16r	.
16f#	viel
16r	.
=6	=6
16g	Ʒuk-
16r	.
16b/	-ker-
16r	.
16a	-waf-
16r	.
16d	-feln,
16r}	.
=7	=7
{16dd	wille
16cc#	.
16dd	wille
16cc#	.
16dd	will,
16r	.
16b	die's
16r	.
=8	=8
16a	Kin-
16g	-de-
16f#	-lein
16e	ſoll
8d	han!
8r}	.
==	==
!!!AGN: Kinder - Lied
!!!ONB: ESAC (Essen Associative Code) Database: ZUCCAL
!!!AMT: simple duple
!!!AIN: vox
!!!EED: Helmut Schaffrath
!!!EEV: 1.0
!!!GTL: IX. Kinder- Lieder.
!!!URL-scan: https://www.digitale-sammlungen.de/de/view/bsb11160573?page=662
!!!ENC: Anna Maria Matuszewska
!!!EEV: 2025/02/07
*-	*-
